X: 1679
T: Whistling Mike
M:2/4
L:1/16
B:O'Neill's 1679
N:"collected by J.O'Neill"
K:G
(3DEF \
| GABcdBgf | efgedBGB | cedcBAGB | AGFED2(3DEF |
| GABcdBgf | efgedBGB | cedcB>A (3GAB | A2G2G2 :|
|: (3def \
| gdBdedBd | gdBd edBd | gfed cBAG | F>A(3GFE D2(3DEF |
| GABcdBgf | efgedBGB | cedcB>A(3GAB | A2G2G2 :|


